X:1
T:Title
%%score { 1 | 2 }
L:1/8
Q:1/4=94
M:4/4
K:C
V:1 treble nm="Grand Piano"
V:2 bass 
V:1
 [EG][FA][EG][_E^F] [=EG][EA][EB][Ec] | [FB]2 [FB]2 [B,F]4 | %2
w: E.~S.~Lorenz * * * * * * *||
 [DF][EG][DF][^CE] [DF][=CEG][B,FA][DFB] | [EA]2 [EA]2 [CE]4 | [EG][FA][EG][_E^F] [=EG][Ec] [Ec]2 | %5
w: |||
 ABA^G Ad d2 | [Fc][FB][B,FA][DFB] [FA][EG]cF |[M:7/8] E2 [B,D]2 C3 |[M:1/8] [Ec] | %9
w: ||||
[M:4/4] [FB]2 [B,DF]2 [B,FA]3 [DFB] | [FA][EG][Ec][FA] [EG]3 [EA] | %11
w: ||
 [B,DG]2 [G,B,D]2 [G,B,F]3 [G,B,G] | [G,DF][G,CE][CEG][A,DF] [G,CE]4 | %13
w: ||
 [EG][FA][EG][_E^F] [=EG][Ec] [Ec]2 | ABA^G Ad d2 | [Fc][FB][B,FA][DFB] [FA][EG]cF | %16
w: |||
[M:15/8] E2 [B,D]-[B,D] C2- C z2 z6 |] %17
w: |
V:2
 [C,C][C,C][C,C][C,C] [C,C][C,C][C,B,][C,A,] | [D,G,]2 [D,G,]2 [D,G,]4 | %2
 [G,,G,][G,,G,][G,,G,][G,,G,] [G,,G,]G,,G,,G,, | [C,C]2 [C,C]2 [C,G,]4 | %4
 [C,C][C,C][C,C][C,C] [C,C][C,G,] [C,C]2 | [F,CF][F,DF][F,CF][F,B,F] [F,CF][F,A,F] [F,A,F]2 | %6
 [D,G,][D,G,]G,,G,, [C,C][C,C][E,G,C][F,A,D] |[M:7/8] [G,C]2 [G,,F,]2 [C,E,]3 |[M:1/8] [C,G,] | %9
[M:4/4] [D,G,]2 D,2 G,,3 G,, | [C,C][C,C][C,C][C,C] [C,C]3 [C,C] | G,,2 G,,2 G,,3 G,, | %12
 C,C,C,C, C,4 | [C,C][C,C][C,C][C,C] [C,C][C,G,] [C,C]2 | %14
 [F,CF][F,DF][F,CF][F,B,F] [F,CF][F,A,F] [F,A,F]2 | [D,G,][D,G,]G,,G,, [C,C][C,C][E,G,C][F,A,D] | %16
[M:15/8] [G,C]2 [G,,F,]-[G,,F,] [C,E,]2- [C,E,] z2 z6 |] %17

